X:1
T:Polka #3
M:2/4
L:1/8
N:Polka
Z:Harry Ferguson 2/20/2003
K:G
|: G2G>A | BddB | cBAG | AcBA |
G2G>A | BddB | cBAB |[1 G2Bd:|[2 G2 de/f/ ||
|: g2f>f | egd2 | de/f/ gd | edA2 |
de/f/ gd | egdB | cBAB |[1 G2 de/f/ :|[2 G4 ||
